icons/svg/32x32/bookmark add/outline.svg

<svg width="32" height="32" fill="none" xmlns="http://www.w3.org/2000/svg">
  <path fill-rule="evenodd" clip-rule="evenodd" d="M28 7h-4V3a1 1 0 10-2 0v4h-4a1 1 0 100 2h4v4a1 1 0 102 0V9h4a1 1 0 100-2zm-6 9h2v13.724l-8-4.573-8 4.573V5a3 3 0 013-3h9v2h-9a1 1 0 00-1 1v21.276l5.008-2.861a2 2 0 011.984 0L22 26.276V16z" fill="#000"/>
</svg>

<svg xmlns="http://www.w3.org/2000/svg" width="32" height="32" viewBox="0 0 32 32">
  <path fill-rule="evenodd" d="M28,7 L24,7 L24,3 C24,2.447 23.553,2 23,2 C22.447,2 22,2.447 22,3 L22,7 L18,7 C17.447,7 17,7.447 17,8 C17,8.553 17.447,9 18,9 L22,9 L22,13 C22,13.553 22.447,14 23,14 C23.553,14 24,13.553 24,13 L24,9 L28,9 C28.553,9 29,8.553 29,8 C29,7.447 28.553,7 28,7 L28,7 Z M22,16 L24,16 L24,29.724 L16,25.151 L8,29.724 L8,5 C8,3.343 9.343,2 11,2 L20,2 L20,4 L11,4 C10.447,4 10,4.447 10,5 L10,26.276 L15.008,23.415 C15.623,23.064 16.377,23.064 16.992,23.415 L22,26.276 L22,16 Z"/>
</svg>
